staff/assets/img/book_desk.svg

<svg id="Layer_1" data-name="Layer 1" xmlns="http://www.w3.org/2000/svg" viewBox="0 0 53.2 53.2"><defs><style>.cls-1{fill:#fbbf56}.cls-2{fill:#fff}.cls-3{fill:#e86487}.cls-4{fill:#f6ccd6}.cls-5{fill:#abdcd7}</style></defs><title>Book a desk</title><g id="Artboard_1" data-name="Artboard 1"><g id="Group_2815" data-name="Group 2815"><g id="huper_boss-prime1" data-name="huper boss-prime1"><path id="Path_18894" data-name="Path 18894" class="cls-1" d="M53.2 26.6A26.6 26.6 0 1 1 26.6 0a26.6 26.6 0 0 1 26.6 26.6z"/><path id="Path_18895" data-name="Path 18895" class="cls-2" d="M25.684 31.255h1.663v10.89h-1.663z"/><path id="Path_18896" data-name="Path 18896" class="cls-2" d="M20.281 41.98h-1.663V39.4a3.029 3.029 0 0 1 .665-2 2.566 2.566 0 0 1 2.078-.831H26.6v1.663h-5.239a1.1 1.1 0 0 0-.831.249 1.231 1.231 0 0 0-.25.748zm14.3 0h-1.663v-2.66a.9.9 0 0 0-1.08-1H26.6v-1.66h5.237a2.443 2.443 0 0 1 2.078.831 3.029 3.029 0 0 1 .665 2z"/><path id="Path_18897" data-name="Path 18897" class="cls-3" d="M20.779 42.146a1.333 1.333 0 1 1-1.33-1.247 1.291 1.291 0 0 1 1.33 1.247zm7.149 0A1.333 1.333 0 1 1 26.6 40.9a1.291 1.291 0 0 1 1.33 1.247zm7.232 0a1.333 1.333 0 1 1-1.33-1.246 1.291 1.291 0 0 1 1.33 1.247z"/><path id="Path_18898" data-name="Path 18898" class="cls-4" d="M30.506 31.255h-7.895a3.336 3.336 0 0 1-3.325-3.325V13.714a3.336 3.336 0 0 1 3.325-3.325h7.9a3.336 3.336 0 0 1 3.325 3.325V27.93a3.336 3.336 0 0 1-3.33 3.325z"/><path id="Path_18899" data-name="Path 18899" class="cls-3" d="M19.449 28.263v-5.4a1.331 1.331 0 0 0-1.413-1.663h-2.494v1.247h1.912v6.817s-.333 2.743 1.912 2.743h7.149v-3.658zm14.3 0v-5.4a1.331 1.331 0 0 1 1.413-1.663h2.494v1.247h-1.912v6.817s.332 2.743-1.912 2.743h-7.149v-3.658z"/></g><path id="Path_18900" data-name="Path 18900" class="cls-5" d="M42.2 27.766c-2.2-1.518-8.349-2.657-15.483-2.657-7.211 0-13.283 1.139-15.484 2.657h-.987v1.29c0 2.2 7.363 3.947 16.394 3.947s16.395-1.745 16.395-3.945v-1.29z"/><path id="Path_18901" data-name="Path 18901" class="cls-2" d="M43.114 27.766c0 2.2-7.363 3.947-16.394 3.947s-16.394-1.746-16.394-3.947 7.362-3.947 16.394-3.947 16.394 1.746 16.394 3.947z"/><path id="Rectangle_2262" data-name="Rectangle 2262" class="cls-5" d="M26.946 32.237a1.025 1.025 0 0 1 1.025 1.025v9.916a1.025 1.025 0 0 1-1.025 1.022 1.025 1.025 0 0 1-1.024-1.025v-9.913a1.025 1.025 0 0 1 1.024-1.025z"/></g></g></svg>

<svg id="Layer_1" data-name="Layer 1" xmlns="http://www.w3.org/2000/svg" viewBox="0 0 53.2 53.2"><defs><style>.cls-1{fill:#fbbf56;}.cls-2{fill:#fff;}.cls-3{fill:#e86487;}.cls-4{fill:#f6ccd6;}.cls-5{fill:#abdcd7;}</style></defs><title>Book a desk</title><g id="Artboard_1" data-name="Artboard 1"><g id="Group_2815" data-name="Group 2815"><g id="huper_boss-prime1" data-name="huper boss-prime1"><path id="Path_18894" data-name="Path 18894" class="cls-1" d="M53.2,26.6A26.6,26.6,0,1,1,26.6,0,26.6,26.6,0,0,1,53.2,26.6Z"/><path id="Path_18895" data-name="Path 18895" class="cls-2" d="M25.684,31.255h1.663v10.89H25.684Z"/><path id="Path_18896" data-name="Path 18896" class="cls-2" d="M20.281,41.98H18.618V39.4a3.029,3.029,0,0,1,.665-2,2.566,2.566,0,0,1,2.078-.831H26.6v1.663H21.361a1.1,1.1,0,0,0-.831.249,1.231,1.231,0,0,0-.25.748Zm14.3,0H32.918V39.32a.9.9,0,0,0-1.08-1H26.6V36.66h5.237a2.443,2.443,0,0,1,2.078.831,3.029,3.029,0,0,1,.665,2Z"/><path id="Path_18897" data-name="Path 18897" class="cls-3" d="M20.779,42.146a1.333,1.333,0,1,1-1.33-1.247A1.291,1.291,0,0,1,20.779,42.146Zm7.149,0A1.333,1.333,0,1,1,26.6,40.9a1.291,1.291,0,0,1,1.33,1.247Zm7.232,0A1.333,1.333,0,1,1,33.83,40.9a1.291,1.291,0,0,1,1.33,1.247Z"/><path id="Path_18898" data-name="Path 18898" class="cls-4" d="M30.506,31.255H22.611a3.336,3.336,0,0,1-3.325-3.325V13.714a3.336,3.336,0,0,1,3.325-3.325h7.9a3.336,3.336,0,0,1,3.325,3.325V27.93A3.336,3.336,0,0,1,30.506,31.255Z"/><path id="Path_18899" data-name="Path 18899" class="cls-3" d="M19.449,28.263v-5.4A1.331,1.331,0,0,0,18.036,21.2H15.542v1.247h1.912v6.817s-.333,2.743,1.912,2.743h7.149V28.349Zm14.3,0v-5.4A1.331,1.331,0,0,1,35.162,21.2h2.494v1.247H35.744v6.817s.332,2.743-1.912,2.743H26.683V28.349Z"/></g><path id="Path_18900" data-name="Path 18900" class="cls-5" d="M42.2,27.766c-2.2-1.518-8.349-2.657-15.483-2.657-7.211,0-13.283,1.139-15.484,2.657h-.987v1.29c0,2.2,7.363,3.947,16.394,3.947s16.395-1.745,16.395-3.945v-1.29Z"/><path id="Path_18901" data-name="Path 18901" class="cls-2" d="M43.114,27.766c0,2.2-7.363,3.947-16.394,3.947s-16.394-1.746-16.394-3.947,7.362-3.947,16.394-3.947S43.114,25.565,43.114,27.766Z"/><path id="Rectangle_2262" data-name="Rectangle 2262" class="cls-5" d="M26.946,32.237h0a1.025,1.025,0,0,1,1.025,1.025v9.916A1.025,1.025,0,0,1,26.946,44.2h0a1.025,1.025,0,0,1-1.024-1.025V33.262A1.025,1.025,0,0,1,26.946,32.237Z"/></g></g></svg>
